X:1
T:A la maniere de ... Emmanuel Chabrier
T:À la manière de . . . Emmanuel Chabrier
T:Paraphrase sur un air de Gounod
T:M.Ravel
Z:M.Ravel
%%score { ( 1 3 6 ) | ( 2 4 5 ) }
L:1/8
Q:3/8=70
M:6/8
K:C
V:1 treble nm="Piano" snm="Pno."
V:3 treble 
V:6 treble 
V:2 bass 
V:4 bass 
V:5 bass 
V:1
"^Allegretto" z!p! [FG][FG] [FG][FG][FG] | [FG][FG][FG] [FG][FG][FG] | [FG][FG][FG] [FG][FG][FG] | %3
 [FG][FG]"_cresc."[FG] [FG][FG][FG] | [FG][FG][FG] [FG][FG][FG] | %5
!mf! [FG]!<(![FG][FG]- [FG][FG][FG]- | %6
 [FG][FG]"^rall. molto"[FG]-[Q:3/8=68] [FG][FG][Q:3/8=64][FG]-!<)! | %7
!>(! [FG][Q:3/8=60][^D^FG][DFG]-[Q:3/8=56] [DFG][=D=FG][Q:3/8=50][DFG]!>)! | %8
!p![Q:3/8=60]"^Meno mosso. Rubato" z !tenuto!G2[Q:3/8=56] z[Q:3/8=60] z2 | %9
"^avec charme"[Q:3/8=56] z[Q:3/8=60] (cd[Q:3/8=56] e[Q:3/8=60]BA | %10
[Q:3/8=56] G3-[Q:3/8=60][Q:3/8=56] G2)[Q:3/8=50] (E[Q:3/8=40] | %11
[Q:3/8=56] =G3-[Q:3/8=60][Q:3/8=56] G2[Q:3/8=60] D |[Q:3/8=56] E6)[Q:3/8=60][Q:3/8=56][Q:3/8=60] | %13
[Q:3/8=56] z[Q:3/8=60] (cc[Q:3/8=56] c[Q:3/8=60]Bc | %14
[Q:3/8=56]!>(! !>!d3 A3-)!>)![Q:3/8=54][Q:3/8=52][Q:3/8=50] | %15
!pp!"^m.g."[Q:3/8=40] [^fc'e']6[Q:3/8=60] | %16
[Q:3/8=56]!>(! !>!e3!>)! B3-[Q:3/8=53][Q:3/8=50][Q:3/8=47] | %17
"^m.s."!pp! !fermata![^gd'^f']6[Q:3/8=48][Q:3/8=52][Q:3/8=56] | %18
"^a tempo"!pp![Q:3/8=60] ^f3- f^e^d | [^C^c-]3 [Cc]2 ^E- |!mp!!>(! A2 G- G3!>)! | %21
!p!"^rall." x3[Q:3/8=56]!pp![Q:3/8=50] (!tenuto!e'b[Q:3/8=44](3a/b/a/ | %22
"^a tempo"[Q:3/8=56] g3-[Q:3/8=60][Q:3/8=56] g2)[Q:3/8=60] (e | %23
[Q:3/8=56] g3-[Q:3/8=60][Q:3/8=56] g2[Q:3/8=60] d |[Q:3/8=56] e6)[Q:3/8=60][Q:3/8=56][Q:3/8=60] | %25
[Q:3/8=56] z!pp![Q:3/8=60] (c'c'[Q:3/8=56] c'[Q:3/8=60]b[Q:3/8=50]c' | %26
[Q:3/8=56] !>!d'3- (2:3:2(d' a-))[Q:3/8=40][Q:3/8=50] | !fermata!a[Q:3/8=56] (d'd' d'c'd' | %28
[Q:3/8=50] !>!e'3- (2:3:2(e' b-))[Q:3/8=30][Q:3/8=40] | %29
 b[Q:3/8=56]!<(! ([Aea][B=fb] [c=gc'][dad']!<)!!p![e=be']) | %30
[Q:3/8=16][I:staff +1] (6:4:6(=G/8"_subito"[Q:3/8=26]_B/8[Q:3/8=36]_e/8[I:staff -1]g/8-[Q:3/8=46]_b/8-_e'/8-)[Q:3/8=60] ([gg']3- [gg']2 [ff']- | %31
 [ff']!pp!!<(![_e_e'][dd'] [cc'][_B_b][_Ee] | [_A_a]3- (4:3:4[Aa][Gg][Ff][Gg] | %33
[Q:3/8=58] [Ff][_E_e][Dd]!<)!!mp![Q:3/8=56]!>(! [Cc][_B,_B][Q:3/8=40][_E,E])!>)! | %34
[Q:3/8=56] z2 z z"^molto rall."[Q:3/8=52] G2-[Q:3/8=50] | G[Q:3/8=48]FE[Q:3/8=44] D2[Q:3/8=40] G, | %36
[M:9/8]"^a tempo"[Q:3/8=60] D3 x3 z2 z |[M:6/8] z2"^rall." (e[Q:3/8=54] B2 c | %38
[Q:3/8=52] ^c2 d[Q:3/8=20][Q:3/8=50] ^fg[Q:3/8=48]{/b}a |"^a tempo"[Q:3/8=60] g3) z2 z | %40
 z2"^molto rall." (e[Q:3/8=50] B2[Q:3/8=44] c | %41
[Q:3/8=40] ^c2"^a tempo"[Q:3/8=56] (5:4:5d/4e/4d/4c/4d/4[Q:3/8=60]{/b} !tenuto!.[Bfa]!tenuto!.[Bfg]!tenuto!.B) | %42
 (d6 |"^rall."[Q:3/8=56] c3[Q:3/8=52] d3[Q:3/8=54][Q:3/8=50][Q:3/8=48] | %44
[Q:3/8=44] e3) !fermata![c'e'g']3[Q:3/8=40][Q:3/8=36] |] %45
V:2
!ped! z6!ped-up! |!p!!ped! z (G,A, B,G,E,)!ped-up! |!ped! (E,3 D,2) z!ped-up! | %3
!ped! z (B,"_cresc."C DB,A,)!ped-up! |!ped! (A,3 G,2) z!ped-up! | %5
[K:treble]!mf!!ped! z!<(! (FG AGF!ped-up! | %6
[K:bass]!ped! B,A,G,!ped-up!!ped! (4:3:4!tenuto!F,!tenuto!B,,!tenuto!A,,!tenuto!B,,!<)!!ped-up! | %7
!ped! A,,3!ped-up!!ped! B,,,3)!ped-up! |!ped! z2 z (!tenuto!B,3!ped-up! | %9
!ped! !tenuto!A,3 !tenuto!G,3)!ped-up! | %10
!ped! (!tenuto!.C,3!ped-up!!ped! !tenuto!.G,,3)!ped-up!!ped! | %11
"^un peu en dehors"!<(! (!>!^G,3!ped-up!!ped! A,2 D!<)!!ped-up! | %12
!p!!>(!!ped! D2 G,)!>)!!ped-up!!ped! x2 x!ped-up! |!ped! z2 [G,E]!ped-up!!ped! z2 [G,E]!ped-up! | %14
!ped! z!p! A,,[I:staff -1][^F,CE]- [F,CE][I:staff +1][^F,CE]-[I:staff -1][^Fce] | %15
[I:staff +1] [^F,CE]6!ped-up! | %16
!ped! z E,,[I:staff -1][^G,D^F]- [G,DF][I:staff +1][^G,D^F]-[I:staff -1][^Gd^f] | %17
[I:staff +1] !fermata![G,DF]6!ped-up! |!ped! z!<(! ^B,^C ^D^E!<)!^F!ped-up! | %19
!mf!!ped! B,3- B,B,[I:staff -1]E!ped-up! |!ped![I:staff +1] C,(^C,D, E,D,G,,)!ped-up! | %21
!ped! z (CD EB,A,!ped-up! |!ped! G,3- G,2) (E,!ped-up! | %23
!ped! G,3"^un peu en dehors" ^G,A,D!ped-up! |!ped! DG,{/B,}A, G,3)!ped-up! | z (CC- CB,C | %26
!ped! z (3D,,/A,,/[I:staff -1]^F,/(3C/D/E/[I:staff +1] (14:12:15(1:1:7A,/4)C/4D/4[I:staff -1]^F/4c/4d/4e/4[I:staff +1][K:treble] (1:1:8z/4 x/4-x/4-x/4- x/4 x/4 x/4 x/4 | %27
 x[K:bass] (DD DCD!ped-up! | %28
!ped! z (3E,,/B,,/[I:staff -1]^G,/(3D/E/^F/[I:staff +1] (14:12:15(1:1:7B,/4)D/4E/4[I:staff -1]^G/4d/4e/4^f/4[I:staff +1][K:treble] (1:1:8z/4 x/4-x/4-x/4- x/4 x/4 x/4 x/4 | %29
 !fermata![Bde]!ped-up!!ped! ([^CG-][DG] [E_B][^FA][^Gd])!ped-up! | %30
!pp!!ped! x/ z[K:bass] (=A,,,[_B,,,_B,,] A,,,[B,,,B,,]A,,,!ped-up! | %31
!ped! [_B,,,_B,,]A,,,[B,,,B,,] A,,,[B,,,B,,]A,,,!ped-up! | %32
!ped! [_B,,,_B,,]A,,,[B,,,B,,] !courtesy!=A,,,[B,,,B,,]A,,,!ped-up! | %33
!ped! [_B,,,_B,,]A,,,[B,,,B,,]- [B,,,B,,]A,,,[B,,,B,,])!ped-up! | z2 z!pp!!ped! G,,3-!ped-up! | %35
!ped! G,,F,,E,, D,,2 G,,,!ped-up! |[M:9/8]!ped! x2 x!ped-up!!ped! x[K:treble] (cd eBA!ped-up! | %37
[M:6/8]!ped! G3-) G3-!ped-up! |!ped! G3 G3-!ped-up! |!ped! z CD EB,A,!ped-up! | %40
!ped! G,3 z [EG-]2!ped-up! | %41
!ped! [FG]3!ped-up!!ped! (!tenuto!.[G,FG]!ped-up!!ped!!tenuto!.[G,FG]!ped-up!!ped!!tenuto!.[G,FG])!ped-up! | %42
[K:bass]!ped! z (C,,^F,, G,,E,G,- | G,^F,G,- G,EG) |[K:treble] z!pp! ^fg!ped-up! x3 |] %45
V:3
 x6 | x6 | x6 | x6 | x6 | x6 | x6 | x6 | z [CE][CE] [CE][CE][CE]- | [CE][CE][CE]- [CE][CE][CE]- | %10
 [CE][G,CE][G,CE]- [G,CE][G,C][G,C] | z [FG][FG]- [FG][FG][FG] | z [EG][EG]- [EG][G,E][G,E] | x6 | %14
 x6 | A!p!dd dcd | x6 | B"^accel."!p!AB cde | x6 | ^G>^FG/^A/ G2 x | [B,=F]2 [B,F] [B,F]3 | %21
 z z/ g/- [Geg]2- [Geg]2 | z [EG][EG]- [EG][EG][EG] | z [FG][FG]- [FG][FG][FG] | %24
 z [EG][EG]- [EG][EG][EG] | x6 | %26
 x3 (2:3:9z (8:4:8z/4[I:staff +1] A/4c/4d/4[I:staff -1]^f/4-c'/4-d'/4-e'/4- | %27
 !fermata![fc'd'e'a'd'']6 | %28
 x3 (2:3:9z (8:4:8z/4[I:staff +1] B/4d/4e/4[I:staff -1]^g/4-d'/4-e'/4-^f'/4 | %29
 !fermata![gd'e'b'e''] x x4 | x13/2 | x6 | x6 | [G_B]3 [_EG]3 | x2 x x [G,F][G,F]- | %35
 [G,F][FG][FG]- [FG][FG][FG] |[M:9/8] z [G,EG][G,-E-G] [G,EG]3 x2 x |[M:6/8] x6 | B3 ([Bf]3 | %39
 c3) x2 x | x2 x x3- | B3 x2 x | [EG]6 | [EG]6 | x6 |] %45
V:4
 x6 | x6 | x6 | x6 | x6 |[K:treble] x6 |[K:bass] x6 | x6 | C,,6 | x6 | x3 x2 x3/4 x/4 | %11
{/D,-} (!tenuto!.D,3 !tenuto!.G,,3) | (!tenuto!C,3 !tenuto!B,,3 | !tenuto!A,,3 !tenuto!G,,3) | %14
 x !tenuto![D,,A,,]2- [D,,A,,]3- | [D,,A,,]6 | x !tenuto![E,,B,,]2- [E,,B,,]3- | %17
 !fermata![E,,B,,] z z4 | z/ C,,/- C,,2- C,,3- | C,, ^C,2- C,3- | (G,,6 | C,,6) | %22
 (!tenuto!.C,3 !tenuto!.G,,3) | (!tenuto!.D,3 !tenuto!.G,,3) | (!tenuto!C,3- C, !tenuto!B,,2 | %25
 !tenuto!A,,3 !tenuto!G,,3) | z D,,2- (D,,3[K:treble] | B,6)[K:bass] | x E,,2- (E,,3[K:treble] | %29
 !fermata!C) x x4 | x3/2[K:bass] x5 | x6 | x6 | x6 | x6 | x6 |[M:9/8] D,,3 C,,3[K:treble] z2 z | %37
[M:6/8] G3- G ^F2 | F3 ([G,-F]3 | [G,EG]3) x2 x | x3- G,3- | G,3 x2 x |[K:bass] x6 | x6 | %44
[K:treble] x e2 x3 |] %45
V:5
 x6 | x6 | x6 | x6 | x6 |[K:treble] x6 |[K:bass] x6 | x6 | x6 | x6 | x6 | x6 | x6 | x6 | x6 | x6 | %16
 x6 | x6 | z [^F,^A,]2- [F,A,] [=A,^C]2 | ^E,>^D,E,/^F,/ E,3 | x6 | x6 | x6 | x6 | x6 | %25
 x2 [EG] x2 [EG] | D3 x3[K:treble] | !fermata![Acd]6[K:bass] | E3 x3[K:treble] | x6 | %30
 x3/2[K:bass] x5 | x6 | x6 | x6 | x6 | x6 |[M:9/8] x4[K:treble] x5 |[M:6/8] x6 | %38
 x2 x/ (5:4:5x/8-x/8-x/8- x/8 x/8 x2 x | x6 | x6 | x6 |[K:bass] x6 | x6 |[K:treble] x6 |] %45
V:6
 x6 | x6 | x6 | x6 | x6 | x6 | x6 | x6 | x6 | x6 | x6 | x6 | x6 | x6 | x6 | x6 | x6 | x6 | x6 | %19
 x6 | x6 | x6 | x6 | x6 | x6 | x6 | x6 | x6 | x6 | x6 | x/ [be']3 [_b_e']2 [g_b]- | [gb]3 [_eg]3 | %32
 x6 | x6 | x6 | x6 |[M:9/8] x9 |[M:6/8] x6 | %38
 x2 x/[I:staff +1] (5:4:5G,/8F/8G/8[I:staff -1]B/8-=f/8- x2 x | x6 | x6 | x6 | x6 | x6 | x6 |] %45

